X: 0931
T: NORMA GRAND MARCH
B: Oliver Ditson "The Boston Collection of Instrumental Music" 1910 p.93 #1
F: http://conquest.imslp.info/files/imglnks/usimg/8/8f/IMSLP175643-PMLP309456-bostoncollection00bost_bw.pdf
%: 2012 John Chambers <jc:trillian.mit.edu>
M: 4/4
L: 1/8
K: F
F>A |\
c2A>c f2c>f | a6 g>a | b>ag>f g>fe>d | (c4 A2)d>c |\
(c2>>B2) G2d>c | (c2>>A2) F2f>e | d2d>e f>ef>g | c6 :|
|: c2 |\
d2d>d d>cd>e | (f4 c2)d>c | B>AB>c d>ef>g | (a4 f2)c>c |\
d2d>d d>cd>e | (f4 c2)f>e | d>cd>e f>ca>g | f6 H:|
K: Bb
|: F2 |\
F2B>c d2f2 | f2e>d c2z2 | c2=B>c d2e2 | e2d>c B2z2 |\
F2B>c d2f2 | f2e>d c2g2 | g2c>d f>ec>d | B3d/c/ "da Capo"B2 :|

%%sep 1 1 500
%%sep 1 1 500
